X:1
T: Cape Town Wedding
T: 8 x 32S 3C ()
P: Mr. Dolph Morris' Strathspey
C: by Pete Kier, arr. T. Traub 5-15-2007
R: Strathspey
M: 4/4
K: F
L: 1/8
c>B|"F"A2 A>G "Dm"F>GA>F|"Gm"B>AG>F "C"E<cd>e|"F"f>ed>c "Bb"d>cB>A|"Gm"B>A"G"G>F "C"G2 c>B|"F"A2 A>G "Dm"F>GA>F|
"Gm"D<BG>F "C"E>cd>e|"F"f>ed>c "Bb"B<DF<B|"C"A>C!beambr1!E<G "F"F2 c>B|| "F"A<cc>A "Bb"B>cd>B|"C"G<BB>G "F"A>Bc>A|
"Dm"F<AA>F "Gm"G>AB>G|"C"c<CC>C c<CC>c|"F"A<cc>A "Gm"B>cd>B|"C"G<BB>G "F"A>Bc>A|"Dm"f2 f2 "Bb"e>dc>B|"C"A>C!beambr1!E<G "F"F2 |]

